symbols/web/roofing/materialsymbolsrounded/roofing_wght100grad200_40px.svg

<svg xmlns="http://www.w3.org/2000/svg" height="40" width="40"><path d="M8.417 19.083q-.542 0-.729-.458-.188-.458.229-.792L19 7.792q.417-.334 1-.334t1 .334l5.208 4.75v-3q0-.334.25-.584.25-.25.584-.25h1.291q.375 0 .605.25.229.25.229.584v5.666l2.958 2.667q.333.333.146.771-.188.437-.688.437h-.416q-.125 0-.271-.062-.146-.063-.271-.188L20 9.292 9.375 18.833q-.125.125-.25.188-.125.062-.292.062Zm9.333 13.084q-.667 0-1.083-.417-.417-.417-.417-1.083v-5q0-.625.417-1.042.416-.417 1.083-.417h4.542q.625 0 1.062.417.438.417.438 1.042v5q0 .666-.438 1.083-.437.417-1.062.417Zm.208-1.709h4.125v-4.541h-4.125Z"/></svg>

<svg xmlns="http://www.w3.org/2000/svg" height="40" width="40"><path d="M8.417 19.083Q7.875 19.083 7.688 18.625Q7.5 18.167 7.917 17.833L19 7.792Q19.417 7.458 20 7.458Q20.583 7.458 21 7.792L26.208 12.542V9.542Q26.208 9.208 26.458 8.958Q26.708 8.708 27.042 8.708H28.333Q28.708 8.708 28.938 8.958Q29.167 9.208 29.167 9.542V15.208L32.125 17.875Q32.458 18.208 32.271 18.646Q32.083 19.083 31.583 19.083H31.167Q31.042 19.083 30.896 19.021Q30.75 18.958 30.625 18.833L20 9.292L9.375 18.833Q9.25 18.958 9.125 19.021Q9 19.083 8.833 19.083ZM17.75 32.167Q17.083 32.167 16.667 31.75Q16.25 31.333 16.25 30.667V25.667Q16.25 25.042 16.667 24.625Q17.083 24.208 17.75 24.208H22.292Q22.917 24.208 23.354 24.625Q23.792 25.042 23.792 25.667V30.667Q23.792 31.333 23.354 31.75Q22.917 32.167 22.292 32.167ZM17.958 30.458H22.083V25.917H17.958Z"/></svg>
